icons/chills_fill.svg

<svg width="48" height="48" viewBox="0 0 48 48" fill="none" xmlns="http://www.w3.org/2000/svg">
<path fill-rule="evenodd" clip-rule="evenodd" d="M16.1671 15.3509C16.438 14.5613 17.1697 14.0251 18 14.0009L18.0588 14H30C30.8303 14.0243 31.562 14.5613 31.8329 15.3509L33.8917 21.3509C34.163 22.1416 33.9105 22.988 33.3148 23.5077L33.1838 23.5514C32.7875 23.6835 32.2322 23.9276 31.6674 24.1758L31.5199 24.2407C31.0403 24.4512 30.534 24.6716 30.0367 24.8686L30 24.8823C29.8431 24.9441 29.6871 25.0043 29.5333 25.0603C28.8611 25.3047 28.3186 25.4486 27.9551 25.4706C27.9274 25.4723 27.9028 25.4731 27.8811 25.4733C27.6764 24.8104 27.5316 24.0799 27.6162 23.4447C27.6609 23.1099 27.7664 22.8261 27.9425 22.5897C28.1162 22.3567 28.3963 22.1186 28.8714 21.9285L29.7999 21.5571L29.0571 19.7002L28.1286 20.0716C27.3537 20.3815 26.7588 20.831 26.3388 21.3948C25.9211 21.9553 25.7142 22.5777 25.6338 23.1804C25.4775 24.3522 25.79 25.5322 26.0513 26.3163C26.2113 26.7963 26.5529 27.1289 26.9687 27.3065C27.3435 27.4665 27.7418 27.4872 28.0761 27.467C28.6759 27.4306 29.3581 27.2406 30 27.017L30 42C30 43.0747 29.1507 43.9573 28.0768 43.9985C27.0028 44.0398 26.0883 43.2249 26.0059 42.1534L25.071 30H22.929L21.9941 42.1534C21.9117 43.2249 20.9972 44.0398 19.9232 43.9985C18.8493 43.9573 18 43.0747 18 42L18 27.0071C18.7784 27.2397 19.5887 27.4322 20.2769 27.4675C20.6423 27.4862 21.0586 27.4664 21.4418 27.325C21.8591 27.171 22.2692 26.8549 22.4487 26.3163C22.7432 25.4329 22.9041 24.2281 22.5913 23.0549C22.2652 21.8323 21.433 20.6962 19.8714 20.0716L18.9429 19.7002L18.2002 21.5571L19.1286 21.9285C20.067 22.3039 20.4848 22.9178 20.6588 23.5702C20.8249 24.1931 20.7734 24.8897 20.616 25.4695C20.5584 25.4737 20.4807 25.4753 20.3794 25.4701C19.8988 25.4455 19.215 25.2892 18.4191 25.0443C18.2804 25.0016 18.1405 24.9569 18 24.9108V24.8823L15.3 23.8735C14.285 23.4943 13.7566 22.3757 14.1083 21.3509L16.1671 15.3509Z" fill="black"/>
<path d="M28 8C28 10.2091 26.2091 12 24 12C21.7909 12 20 10.2091 20 8C20 5.79086 21.7909 4 24 4C26.2091 4 28 5.79086 28 8Z" fill="black"/>
<path fill-rule="evenodd" clip-rule="evenodd" d="M10.7215 15.0429C11.259 14.5053 12.0698 14 13 14H14V16H13C12.7873 16 12.4553 16.1375 12.1357 16.4571C11.987 16.6057 11.872 16.765 11.7985 16.9067C11.7622 16.9766 11.7398 17.0351 11.7271 17.0794C11.7253 17.086 11.7236 17.0921 11.7223 17.0977C11.7342 17.1178 11.753 17.1469 11.7821 17.1857C11.8919 17.332 12.0512 17.4941 12.2785 17.7215C12.2858 17.7287 12.2931 17.7361 12.3006 17.7435C12.4991 17.9419 12.7567 18.1994 12.9607 18.4714C13.1645 18.7432 13.4286 19.1737 13.4286 19.7143C13.4286 20.18 13.191 20.5173 12.9976 20.7158C12.8061 20.9125 12.5764 21.0597 12.3831 21.1685C12.0755 21.3415 11.6847 21.5097 11.3431 21.6568C11.2639 21.6909 11.1874 21.7238 11.1151 21.7554C10.6818 21.945 10.3473 22.1079 10.1249 22.2701C10.0948 22.292 10.0702 22.3114 10.0503 22.3281C10.1597 22.4275 10.3292 22.5289 10.6331 22.6999C10.6453 22.7067 10.6578 22.7137 10.6705 22.7209C10.9295 22.8662 11.308 23.0787 11.6125 23.3642C11.9688 23.6982 12.2857 24.187 12.2857 24.8571C12.2857 25.9235 11.5821 26.6213 11.1937 27.0066C11.1734 27.0266 11.1541 27.0459 11.1357 27.0643C10.6689 27.5311 10.5782 27.6815 10.5718 27.8379C10.5808 27.8583 10.6132 27.9182 10.716 28.0184C10.8854 28.1836 11.1474 28.3587 11.4648 28.5253C11.7735 28.6874 12.0897 28.8183 12.3333 28.9097C12.4537 28.9548 12.5532 28.9891 12.621 29.0116C12.6549 29.0229 12.6806 29.0311 12.6969 29.0363L12.7141 29.0416L12.7159 29.0422L12.717 29.0425L13.6737 29.3295L13.0991 31.2452L12.1412 30.9578L12.4174 30.0372C12.1412 30.9578 12.1414 30.9579 12.1412 30.9578L12.1391 30.9572L12.136 30.9563L12.1267 30.9534L12.096 30.9439C12.0705 30.9358 12.0349 30.9244 11.9906 30.9097C11.9022 30.8803 11.7784 30.8376 11.631 30.7823C11.3389 30.6728 10.9408 30.5091 10.5352 30.2961C10.1383 30.0878 9.686 29.8075 9.31976 29.4504C8.96309 29.1026 8.57143 28.5654 8.57143 27.8571C8.57143 26.7908 9.27501 26.093 9.66346 25.7077C9.6837 25.6876 9.70308 25.6684 9.72146 25.65C10.1978 25.1737 10.2825 25.0267 10.2856 24.8668C10.2787 24.8579 10.2661 24.8434 10.2446 24.8233C10.1356 24.7211 9.96517 24.6188 9.6526 24.443C9.64043 24.4362 9.62795 24.4292 9.61517 24.422C9.35622 24.2766 8.97773 24.0641 8.6732 23.7786C8.31691 23.4446 8 22.9559 8 22.2857C8 21.4739 8.54617 20.946 8.94654 20.654C9.36699 20.3475 9.88962 20.1086 10.3135 19.9231C10.4169 19.8779 10.5145 19.8357 10.6067 19.7959C10.851 19.6904 11.057 19.6015 11.2313 19.5153C11.1351 19.4077 11.0146 19.286 10.8643 19.1357C10.8571 19.1284 10.8497 19.1211 10.8423 19.1136C10.6438 18.9152 10.3862 18.6578 10.1821 18.3857C9.97834 18.114 9.71429 17.6834 9.71429 17.1429C9.71429 16.3384 10.2017 15.5627 10.7215 15.0429Z" fill="black"/>
<path fill-rule="evenodd" clip-rule="evenodd" d="M37.9786 15.15C37.593 14.636 36.9052 14 36 14H35V16H35.987C35.9972 16.0032 36.0262 16.014 36.0748 16.0463C36.1616 16.1042 36.27 16.2052 36.3786 16.35C36.6102 16.6588 36.7105 16.9821 36.7142 17.1343C36.7119 17.1437 36.6994 17.193 36.6418 17.2955C36.5595 17.4418 36.4413 17.6021 36.2714 17.8286C36.2661 17.8356 36.2608 17.8427 36.2554 17.85C36.1057 18.0494 35.9111 18.3088 35.7579 18.5812C35.599 18.8636 35.4286 19.2542 35.4286 19.7143C35.4286 20.4499 35.9692 20.901 36.2304 21.0969C36.4772 21.282 36.7927 21.463 37.0489 21.61C37.1062 21.6428 37.1605 21.674 37.2104 21.7031C37.532 21.8906 37.7567 22.0386 37.9011 22.179C37.9665 22.2426 37.9916 22.2812 38.0001 22.2983C38.001 22.3731 37.9973 22.4306 37.5429 22.7714C37.5263 22.7838 37.5089 22.7968 37.4906 22.8104C37.09 23.1081 36.2857 23.706 36.2857 24.8571C36.2857 25.837 36.7849 26.5004 37.0954 26.913C37.1067 26.928 37.1178 26.9428 37.1286 26.9571C37.4649 27.4055 37.5714 27.587 37.5714 27.8571C37.5714 27.8896 37.5591 27.975 37.444 28.1247C37.3274 28.2762 37.1476 28.4367 36.9265 28.5915C36.7106 28.7427 36.4882 28.8656 36.3162 28.9516C36.2315 28.9939 36.162 29.0258 36.1157 29.0463C36.0926 29.0565 36.0755 29.0638 36.0654 29.0681L36.0563 29.0719L36.0549 29.0724L35.1287 29.4429L35.8715 31.2999L36.8 30.9285L36.4286 30C36.8 30.9285 36.7997 30.9286 36.8 30.9285L36.8022 30.9276L36.8053 30.9263L36.8138 30.9229L36.8399 30.912C36.8611 30.9031 36.8901 30.8907 36.9256 30.875C36.9965 30.8436 37.0944 30.7985 37.2106 30.7404C37.4404 30.6255 37.7537 30.4538 38.0735 30.2299C38.3881 30.0097 38.744 29.7148 39.0292 29.3441C39.3159 28.9714 39.5714 28.4675 39.5714 27.8571C39.5714 26.8773 39.0722 26.2139 38.7618 25.8013C38.7504 25.7863 38.7394 25.7715 38.7286 25.7571C38.3923 25.3088 38.2857 25.1272 38.2857 24.8571C38.2857 24.8536 38.2857 24.8501 38.2856 24.8467C38.2847 24.7708 38.284 24.7155 38.7429 24.3714C38.7594 24.359 38.7768 24.3461 38.7952 24.3324C39.1957 24.0347 40 23.4368 40 22.2857C40 21.5941 39.644 21.0841 39.2953 20.7451C38.9576 20.4167 38.5395 20.1629 38.2182 19.9755C38.1343 19.9266 38.0572 19.8822 37.986 19.8412C37.7859 19.7259 37.6325 19.6376 37.5068 19.5515C37.5889 19.4079 37.7055 19.2498 37.8714 19.0286C37.8767 19.0215 37.8821 19.0144 37.8875 19.0072C38.0371 18.8077 38.2318 18.5483 38.385 18.276C38.5438 17.9936 38.7143 17.603 38.7143 17.1429C38.7143 16.434 38.3853 15.6924 37.9786 15.15ZM37.3317 19.4112C37.3311 19.4112 37.3348 19.416 37.3446 19.4257C37.3373 19.4161 37.3324 19.4113 37.3317 19.4112ZM38.0039 22.3087C38.0043 22.3088 38.0038 22.3062 38.0013 22.3007C38.0023 22.306 38.0035 22.3087 38.0039 22.3087Z" fill="black"/>
</svg>

<svg
  xmlns="http://www.w3.org/2000/svg"
  width="24"
  height="24"
  viewBox="0 0 24 24"
  fill="none"
  stroke="currentColor"
  stroke-width="2"
  stroke-linecap="round"
  stroke-linejoin="round"
>
  <path
    fill-rule="evenodd"
    d="M16.167 15.35A2 2 0 0 1 18 14h12a2 2 0 0 1 1.833 1.35l2.059 6a2 2 0 0 1-.577 2.158l-.131.043c-.396.133-.952.377-1.517.625l-.147.065c-.48.21-.986.43-1.483.628l-.037.013q-.236.094-.467.178c-.672.245-1.214.389-1.578.41l-.074.003c-.205-.663-.35-1.393-.265-2.028.045-.335.15-.619.326-.855.174-.233.454-.471.93-.662l.928-.37-.743-1.858-.928.372c-.775.31-1.37.759-1.79 1.323a3.8 3.8 0 0 0-.705 1.785c-.157 1.172.156 2.352.417 3.136.16.48.502.813.918.99.374.16.773.181 1.107.161.6-.036 1.282-.226 1.924-.45V42a2 2 0 0 1-3.994.153L25.07 30h-2.142l-.935 12.153A2 2 0 0 1 18 42V27.007c.778.233 1.589.425 2.277.46.365.02.782 0 1.165-.142.417-.154.827-.47 1.007-1.009.294-.883.455-2.088.142-3.261-.326-1.223-1.158-2.359-2.72-2.983l-.928-.372-.743 1.857.929.372c.938.375 1.356.989 1.53 1.641.166.623.114 1.32-.043 1.9a2 2 0 0 1-.237 0c-.48-.024-1.164-.18-1.96-.426a24 24 0 0 1-.419-.133v-.029l-2.7-1.009a2 2 0 0 1-1.192-2.522z"
    clip-rule="evenodd"
  />
  <path d="M28 8a4 4 0 1 1-8 0 4 4 0 0 1 8 0" />
  <path
    fill-rule="evenodd"
    d="M10.722 15.043C11.259 14.505 12.07 14 13 14h1v2h-1c-.213 0-.545.137-.864.457a1.9 1.9 0 0 0-.337.45 1 1 0 0 0-.072.172l-.005.019q.017.03.06.088c.11.146.27.308.496.535l.023.023c.198.198.456.455.66.727s.468.703.468 1.243c0 .466-.238.803-.431 1.002a2.7 2.7 0 0 1-.615.453c-.307.172-.698.34-1.04.488l-.228.098c-.433.19-.768.353-.99.515l-.075.058c.11.1.28.2.583.372l.038.02c.259.146.637.359.942.644.356.334.673.823.673 1.493 0 1.067-.704 1.764-1.092 2.15l-.058.057c-.467.467-.558.617-.564.774.009.02.041.08.144.18.17.166.431.34.749.507a8 8 0 0 0 1.232.511l.017.006h.003l.957.287-.575 1.916-.958-.287.276-.92-.276.92h-.002l-.003-.002-.01-.003-.03-.01a9 9 0 0 1-.465-.16 10 10 0 0 1-1.096-.487c-.397-.208-.849-.488-1.215-.846-.357-.347-.749-.885-.749-1.593 0-1.066.704-1.764 1.092-2.15l.058-.057c.477-.476.562-.623.565-.783a.4.4 0 0 0-.041-.044c-.11-.102-.28-.204-.592-.38l-.038-.021c-.259-.145-.637-.358-.942-.643-.356-.334-.673-.823-.673-1.493 0-.812.546-1.34.947-1.632.42-.306.943-.545 1.367-.73l.293-.128c.244-.106.45-.194.624-.28a10 10 0 0 0-.367-.38l-.022-.022c-.198-.199-.456-.456-.66-.728s-.468-.703-.468-1.243c0-.805.488-1.58 1.008-2.1"
    clip-rule="evenodd"
  />
  <path
    fill-rule="evenodd"
    d="M37.979 15.15C37.593 14.636 36.905 14 36 14h-1v2h.987c.01.003.04.014.088.046.087.058.195.16.304.304.231.309.332.632.335.784a.7.7 0 0 1-.072.162 5 5 0 0 1-.387.554c-.15.2-.344.459-.497.731-.159.283-.33.673-.33 1.133 0 .736.541 1.187.802 1.383.247.185.563.366.819.513l.161.093c.322.188.547.336.691.476.066.064.09.102.1.12 0 .074-.004.132-.458.472l-.052.04c-.401.297-1.205.895-1.205 2.046 0 .98.499 1.643.81 2.056q.016.023.033.044c.336.448.442.63.442.9 0 .033-.012.118-.127.268a2.4 2.4 0 0 1-.518.466 5 5 0 0 1-.86.477l-.01.004h-.001l-.926.37.742 1.858.929-.372-.371-.928c.371.928.37.929.371.928h.002l.003-.002.009-.003.026-.011a5 5 0 0 0 .37-.172c.23-.114.544-.286.864-.51.314-.22.67-.515.955-.886.287-.373.542-.876.542-1.487 0-.98-.499-1.643-.81-2.056l-.032-.044c-.337-.448-.443-.63-.443-.9v-.01c-.001-.076-.002-.132.457-.476l.052-.039c.4-.297 1.205-.895 1.205-2.046 0-.692-.356-1.202-.705-1.54-.337-.33-.756-.583-1.077-.77l-.232-.135c-.2-.115-.353-.203-.48-.29a6 6 0 0 1 .365-.522l.017-.022c.15-.2.344-.459.497-.731.159-.282.33-.673.33-1.133 0-.709-.33-1.45-.736-1.993m-.647 4.261q-.001 0 .013.015zm.672 2.898q0 0-.003-.008z"
    clip-rule="evenodd"
  />
</svg>
